src/assets/images/icons/vimeo.svg

<svg xmlns="http://www.w3.org/2000/svg" width="24" height="24" viewBox="0 0 24 24" fill="none">
<g>
<path fill-rule="evenodd" clip-rule="evenodd" d="M23.2745 10.3636V21.4545C23.2745 22.468 22.472 23.2727 21.4606 23.2727H2.59643C1.58538 23.2727 0.782564 22.468 0.782564 21.4545V10.3636V2.54545C0.782564 1.532 1.58538 0.727273 2.59643 0.727273H21.4606C22.472 0.727273 23.2745 1.532 23.2745 2.54545V10.3636ZM0.0570192 20.8346L-11 21.7231L0.0570192 20.8346V2.54545C0.0570192 1.41213 0.799628 0.449498 1.82274 0.120758C2.06677 0.0423476 2.32675 0 2.59643 0H21.4606C22.8613 0 24 1.14182 24 2.54545V21.4545C24 22.8582 22.8613 24 21.4606 24H2.59643C1.19612 24 0.0570192 22.8582 0.0570192 21.4545V20.8346ZM0.0570192 20.8346L11.0995 19.9471C11.8461 19.9471 12.6529 19.5879 13.1006 19.3184C14.8626 18.2409 16.117 16.7435 17.0428 15.5162C19.5518 12.0737 20.836 8.27149 21.0152 7.28349C21.1944 6.29549 21.0449 5.51695 20.627 4.9784C19.7905 3.90058 17.9987 4.08022 17.4611 4.17004C16.6249 4.31949 13.9966 5.54713 13.0708 8.33149L12.9515 8.7504H13.4289C14.3253 8.66058 14.8027 8.7504 15.0418 8.99004C15.2511 9.19949 15.3407 9.58895 15.2808 10.2173C15.2213 10.906 14.8626 11.6842 14.5041 12.3431L14.4744 12.4028C14.2056 12.9119 13.6977 13.8697 13.1902 13.9297C12.9812 13.9595 12.7723 13.8399 12.5629 13.6006C11.8762 12.8519 11.7268 11.5046 11.6074 10.3071C11.5475 9.88822 11.5178 9.52895 11.4579 9.16967L11.3984 8.84022C11.2787 8.09186 11.1293 7.28349 10.9203 6.56495C10.6812 5.81658 10.144 4.85876 9.39703 4.64931C8.68019 4.43913 7.78451 4.70895 7.21677 5.06822C6.20137 5.69658 5.33543 6.47513 4.49888 7.22385C4.17057 7.55295 3.81179 7.88204 3.45373 8.18167C3.30427 8.30167 3.21466 8.48131 3.21466 8.66058C3.21466 8.78058 3.27452 8.90022 3.33438 9.01985C3.36412 9.04967 3.36413 9.07985 3.39387 9.10967C3.51322 9.31913 3.69243 9.61876 4.08096 9.67876C4.46913 9.7384 4.8573 9.64858 5.18597 9.52895C5.75334 9.34895 5.99241 9.28931 6.23112 9.70858C6.44044 10.0977 6.5899 10.5468 6.70925 10.9959C6.76911 11.2053 6.8286 11.4449 6.91821 11.6544C7.21677 12.5526 7.45584 13.5108 7.72465 14.5584L7.81425 14.9475C8.23253 16.7137 8.82965 19.1388 10.3529 19.7977C10.592 19.9173 10.8307 19.9471 11.0995 19.9471L0.0570192 20.8346ZM5.78345 8.8104C5.51464 8.8104 5.24583 8.90022 5.00676 8.93004C4.7082 9.01985 4.43938 9.10967 4.17057 9.07985C4.08096 9.07985 3.81179 8.72058 3.78204 8.66058C4.17057 8.36131 4.55873 8.00204 4.91715 7.67258C5.75335 6.92422 6.5899 6.17585 7.54544 5.63695C7.99347 5.36749 8.70994 5.12785 9.24793 5.27767C9.7257 5.39731 10.1737 6.11585 10.3827 6.7744C10.592 7.43331 10.7114 8.24167 10.8307 8.95985L10.8906 9.28931C10.9203 9.61876 10.9802 9.97804 11.0099 10.3671C11.1293 11.6544 11.2787 13.1213 12.1149 14.0195C12.4733 14.4089 12.8619 14.5886 13.25 14.5286C14.0565 14.4089 14.6239 13.3609 14.9819 12.6722L15.012 12.6126C15.3704 11.9242 15.7887 11.0857 15.8482 10.2773C15.9081 9.46931 15.7887 8.93004 15.4303 8.57076C15.0418 8.18167 14.4446 8.09185 13.8174 8.12167C14.8027 5.72713 17.1027 4.85876 17.5507 4.79876C17.9987 4.70895 19.522 4.55949 20.1492 5.36749C20.4776 5.78676 20.5672 6.35549 20.4181 7.19367C20.2388 8.12167 18.9546 11.8639 16.5651 15.1569C15.669 16.3246 14.4744 17.7915 12.7723 18.7795C12.2343 19.1089 11.1891 19.498 10.5619 19.2286C9.30743 18.6897 8.7698 16.4442 8.38163 14.798L8.29203 14.4089C8.05332 13.3609 7.81425 12.4028 7.48558 11.4748C7.42572 11.2653 7.36623 11.0559 7.30637 10.8464C7.18702 10.3969 7.03756 9.88822 6.76911 9.43913C6.47055 8.95985 6.14151 8.8104 5.78345 8.8104Z" fill="currentColor"/>
</g>
</svg>

<svg xmlns="http://www.w3.org/2000/svg" width="24" height="24" viewBox="0 0 24 24" fill="none"><path fill-rule="evenodd" clip-rule="evenodd" d="M23.274 10.364v11.09a1.804 1.804 0 0 1-1.813 1.819H2.596a1.804 1.804 0 0 1-1.813-1.819V2.546c0-1.013.802-1.818 1.813-1.818h18.865c1.011 0 1.814.805 1.814 1.818v7.819ZM.058 20.834l-11.057.89 11.057-.89V2.546A2.55 2.55 0 0 1 1.823.121C2.067.042 2.327 0 2.596 0h18.865A2.546 2.546 0 0 1 24 2.545v18.91A2.545 2.545 0 0 1 21.46 24H2.597a2.545 2.545 0 0 1-2.539-2.546v-.62Zm0 0 11.043-.887c.746 0 1.553-.36 2-.629 1.763-1.077 3.017-2.575 3.943-3.802 2.509-3.442 3.793-7.245 3.972-8.233.18-.988.03-1.766-.388-2.305-.836-1.077-2.628-.898-3.166-.808-.836.15-3.464 1.377-4.39 4.161l-.12.42h.478c.896-.09 1.374 0 1.613.239.21.21.299.599.239 1.227-.06.689-.418 1.467-.777 2.126l-.03.06c-.268.509-.776 1.467-1.284 1.527-.209.03-.418-.09-.627-.33-.687-.748-.836-2.095-.956-3.293-.06-.419-.09-.778-.15-1.137l-.059-.33c-.12-.748-.269-1.557-.478-2.275-.239-.748-.776-1.706-1.523-1.916-.717-.21-1.612.06-2.18.42-1.016.628-1.882 1.406-2.718 2.155-.328.329-.687.658-1.045.958-.15.12-.24.3-.24.479 0 .12.06.24.12.359.03.03.03.06.06.09.12.21.298.509.687.569.388.06.776-.03 1.105-.15.567-.18.806-.24 1.045.18.21.389.359.838.478 1.287.06.21.12.449.21.658.298.899.537 1.857.806 2.904l.09.39c.418 1.766 1.015 4.19 2.538 4.85.239.12.478.15.747.15l-11.043.887ZM5.783 8.81c-.268 0-.537.09-.776.12-.299.09-.568.18-.836.15-.09 0-.36-.36-.389-.42.389-.299.777-.658 1.135-.987.836-.749 1.673-1.497 2.628-2.036.448-.27 1.165-.51 1.703-.36.478.12.926.839 1.135 1.497.209.66.328 1.468.448 2.186l.06.33c.03.329.09.688.119 1.077.12 1.287.269 2.754 1.105 3.652.358.39.747.57 1.135.51.806-.12 1.374-1.168 1.732-1.857l.03-.06c.358-.688.777-1.526.836-2.335.06-.808-.06-1.347-.418-1.706-.388-.39-.985-.48-1.613-.45.986-2.394 3.286-3.262 3.734-3.322.448-.09 1.971-.24 2.598.568.329.42.418.988.27 1.827-.18.928-1.464 4.67-3.854 7.963-.896 1.168-2.09 2.634-3.793 3.622-.538.33-1.583.719-2.21.45-1.255-.54-1.792-2.785-2.18-4.431l-.09-.39c-.239-1.047-.478-2.005-.806-2.933l-.18-.629c-.119-.45-.268-.958-.537-1.407-.298-.48-.627-.629-.986-.629Z" fill="currentColor"/></svg>
